X:510
T:Mad Cap
R:Reel
B:The Athole Collection
M:C|
L:1/8
K:B_
A|B2 dB FBDB|c2 ec AcFA|B2 dB FBDe|dBfd c2B:|
e|dfdB egce|dBfB AcFe|dfdB egce|dBfd c2 Be|dfdB egce|
dBfB AcFA|BdcA BGFD|EGDF Cedc||

